!!!COM: Palestrina, Giovanni Perluigi da
!!!OPR: O Rex gloriae
!!!OTL: Kyrie
**kern	**kern	**kern	**kern
*Ibass	*Itenor	*Icalto	*Icant
!Bassus	!Tenor	!Altus	!Cantus
*clefF4	*clefGv2	*clefG2	*clefG2
*k[b-]	*k[b-]	*k[b-]	*k[b-]
*G:dor	*G:dor	*G:dor	*G:dor
*M4/2	*M4/2	*M4/2	*M4/2
=1	=1	=1	=1
0r	0r	0g	1r
.	.	.	[1dd
=2	=2	=2	=2
0r	0r	1d	1dd]
.	.	1f	1a
=3	=3	=3	=3
0r	0r	1e	1cc
.	.	2d	1b-
.	.	[2g	.
=4	=4	=4	=4
0r	0d	2g]	1a
.	.	2f	.
.	.	2b-	1dd
.	.	4a	.
.	.	4g	.
=5	=5	=5	=5
0r	1A	1.a	2cc
.	.	.	1ff
.	1c	.	.
.	.	4g	[2ee
.	.	4f	.
=6	=6	=6	=6
0r	1B-	4g	4ee]
.	.	4f	4dd
.	.	4f	1dd
.	.	8e	.
.	.	8d	.
.	1A	1e	.
.	.	.	2cc#
=7	=7	=7	=7
0G	2r	2d	2.dd
.	1d	4G	.
.	.	4A	4cc
.	.	4B-	1b-
.	.	4c	.
.	2B-	4d	.
.	.	4e	.
=8	=8	=8	=8
1D	2d	2.f	1.a
.	2.f	.	.
.	.	4g	.
1F	.	1a	.
.	4e	.	.
.	[2d	.	2f
=9	=9	=9	=9
1E	2d]	2r	2.g
.	2c#	1g	.
.	.	.	4a
1D	1d	.	2b-
.	.	2f	2a
=10	=10	=10	=10
2r	1G	2b-	4g
.	.	.	4a
1G	.	2g	4b-
.	.	.	4cc
.	1r	2b-	[1dd
2F	.	4a	.
.	.	4g	.
=11	=11	=11	=11
2B-	2r	2f	1dd]
2G	1d	2g	.
1A	.	2e	1r
.	2c	[2a	.
=12	=12	=12	=12
1D	2f	2a]	2r
.	2d	2b-	1dd
1r	1e-	1g	.
.	.	.	2cc
=13	=13	=13	=13
0r	2.d	2a	2ff
.	.	1b-	2dd
.	8c	.	.
.	8B-	.	.
.	1c	.	1ee-
.	.	2a	.
=14	=14	=14	=14
1r	2.B-	2b-	2dd
.	.	1g	1b-
.	4c	.	.
[1D	[1d	.	.
.	.	[2f	4a
.	.	.	4g
=15	=15	=15	=15
2D]	2d]	2f]	4a
.	.	.	4b-
2C	2G	4e	1cc
.	.	4d	.
2F	2A	2c	.
2D	2F	[2d	[2b-
=16	=16	=16	=16
1E-	1G	4d]	4b-]
.	.	4c	4a
.	.	2c	1g
1D	1A	1d	.
.	.	.	2f#
=17	=17	=17	=17
0G	0B	0d	0g
=18	=18	=18	=18
1G	1r	0r	0r
1d	1d	.	.
=19	=19	=19	=19
2d	1a	0r	0r
2c	.	.	.
2d	2a	.	.
2B-	2g	.	.
=20	=20	=20	=20
1A	2a	0r	1r
.	2f	.	.
1c	2e	.	1g
.	[2g	.	.
=21	=21	=21	=21
1.B-	2g]	0r	1dd
.	4f	.	.
.	4e	.	.
.	4d	.	2dd
.	4e	.	.
2A	[2f	.	2cc
=22	=22	=22	=22
1G	4f]	0r	2dd
.	8e	.	.
.	8d	.	.
.	2e	.	2b-
1F	1f	.	2a
.	.	.	2cc
=23	=23	=23	=23
1G	2r	1d	4b-
.	.	.	4cc
.	2.d	.	4dd
.	.	.	4ee
1D	.	1a	2.ff
.	4c	.	.
.	4d	.	.
.	4e	.	4ee
=24	=24	=24	=24
0r	2f	2a	4cc
.	.	.	4dd
.	4e	2g	1ee
.	4d	.	.
.	2c	2a	.
.	2d	2f	[2dd
=25	=25	=25	=25
1r	1A	1e	2dd]
.	.	.	2cc
2r	2.B-	1d	2.dd
[2G	.	.	.
.	4c	.	4cc
=26	=26	=26	=26
2G]	1d	2r	2b-
2F	.	1d	2a
2G	1r	.	2b-
2A	.	2c	4a
.	.	.	4g
=27	=27	=27	=27
2B-	0r	2d	2f
2G	.	2e	2b-
2A	.	2f	2a
2B-	.	2d	2g
=28	=28	=28	=28
2c	2r	2e	1a
2d	1d	2f	.
2B-	.	2g	1r
2A	2c	2a	.
=29	=29	=29	=29
1G	2d	1b-	1r
.	2e	.	.
1D	2f	1a	2r
.	2d	.	[2dd
=30	=30	=30	=30
1A	2e	2r	2dd]
.	1f	1a	2cc
1r	.	.	2dd
.	2e	2g	2ee
=31	=31	=31	=31
0r	2.d	2a	2ff
.	.	2b-	2dd
.	8c	.	.
.	8B-	.	.
.	2A	2cc	2ee
.	2d	2a	2ff
=32	=32	=32	=32
2r	1G	1.b-	2.gg
1G	.	.	.
.	.	.	8ff
.	.	.	8ee
.	2r	.	2.dd
2F	[2d	2a	.
.	.	.	4ff
=33	=33	=33	=33
2G	2d]	2b-	1ee
2A	2c	4a	.
.	.	4g	.
2B-	2d	2f	2dd
2G	2e	2g	2b-
=34	=34	=34	=34
2A	2f	2c	2a
2B-	2d	2G	1dd
1c	2.e	1g	.
.	.	.	[2cc
.	4f	.	.
=35	=35	=35	=35
0G	1g	2g	2cc]
.	.	2d	4b-
.	.	.	4a
.	1d	1g	1b-
=36	=36	=36	=36
0D	0d	0f#	0a
=37	=37	=37	=37
0r	1d	1a	1r
.	2g	2b-	1dd
.	2f#	2a	.
=38	=38	=38	=38
0r	1.g	1.b-	2ee-
.	.	.	2dd
.	.	.	[1ee-
.	2c	2g	.
=39	=39	=39	=39
0r	2c	2g	2ee-]
.	1g	1b-	2dd
.	.	.	1dd
.	2f	2a	.
=40	=40	=40	=40
0r	2e	2g	2.cc
.	2.f	2.a	.
.	.	.	4b-
.	.	.	2cc
.	4e	4g	.
.	4d	4f	[2dd
.	4c	4e	.
=41	=41	=41	=41
0r	2B-	2d	2dd]
.	2c	1g	4cc
.	.	.	4b-
.	1d	.	1a
.	.	2f#	.
=42	=42	=42	=42
1G	2r	1g	1b-
.	2d	.	.
2d	2f	2r	1a
2c	2e	2a	.
=43	=43	=43	=43
1.d	1.f	2b-	0r
.	.	2a	.
.	.	[1b-	.
2G	2d	.	.
=44	=44	=44	=44
2G	2d	2b-]	0r
1d	1f	2a	.
.	.	1a	.
2c	2e	.	.
=45	=45	=45	=45
2B	2d	1g	1r
2.c	1e	.	.
.	.	4c	2r
4B-	.	4d	.
2A	2c	4e	2a
.	.	4f	.
=46	=46	=46	=46
2G	2d	2g	2b-
2F	2f	2a	2a
1G	2e	2.g	1b-
.	[2d	.	.
.	.	4f	.
=47	=47	=47	=47
1A	2d]	1e	2a
.	2c#	.	2ee
1D	1d	2d	2.ff
.	.	2a	.
.	.	.	4ee
=48	=48	=48	=48
0r	2r	2b-	2dd
.	2d	2a	2dd
.	2e-	2g	2cc
.	2d	2f	[2b-
=49	=49	=49	=49
1r	1e-	1g	2b-]
.	.	.	4a
.	.	.	4g
1D	1d	2a	4f
.	.	.	4g
.	.	2d	4a
.	.	.	4f
=50	=50	=50	=50
2E-	2G	2c	4g
.	.	.	4a
2D	2F	2d	2.b-
1E-	1G	2B-	.
.	.	.	4a
.	.	2c	2g
=51	=51	=51	=51
0D	2A	1d	2f#
.	2B-	.	1g
.	1A	2r	.
.	.	2d	2f#
=52	=52	=52	=52
2C	2r	2e-	[0g
2BB-	2d	2d	.
2C	2e-	2c	.
2G	2d	2B	.
=53	=53	=53	=53
0C	2.e-	2.c	1g_
.	4d	4d	.
.	1c	1e-	1g_
=54	=54	=54	=54
0G	0B	0d	0g]
==	==	==	==
*-	*-	*-	*-
!!!CDT: 1525/^1526/-1594/2/2
!!!OCY: Italia
!!!AGN: Mass (Parody)
!!!AST: renaissance, vocal
!!!ASW: Motet 1563 (Palestrina)
!!!PWK: Masses, Book 12
!!!RNB: Cadence finals: D
!!!YOR: Le Opere Complete, v. 29, p. 30
!!!YOO: Rome, Italy: Fratelli Scalera
!!!END: 1992//
!!!EED: John Miller
!!!YEC: Copyright 2000, John Miller
!!!YEN: United States of America
!!!YEM: Rights to all derivative electronic formats reserved.
!!!YEM: Refer to licensing agreement for further details.
!!!YEM: This file must be accompanied by the licensing agreement.
!!!YEM: A copy of the licensing agreement may be found at http://www.music-cog.ohio-state.edu/HumdrumDatabases/Palestrina/license.txt
!!!EMD: converted to Humdrum by Bret Aarden
